X:1
T:Gavotte uit BWV 1012
T:Johann Sebastian BACH
%%score ( 1 2 )
L:1/8
M:2/4
K:C
V:1 treble-8 nm="Guitar"
V:2 treble-8 
V:1
"^Gavotte I" e2 e2 | e2 !4!d"^I"c | !4!de !1!f2 | (!1!cB) !2!AG | !4!g2 g2 | g2 !4!a!1!g | %6
 (!1!fe) de | (!1!fe) !4!d!1!c | e2 e2 | e2 dc | de f2 | (cB) AG | c2 c2 | !1!c2 Bc | BA !4!d2 | %15
 B4 :: !2!g2 g2 |"^II" !2!g2 !4!ag | (!1!fe) a2 | (!4!g!1!f) ed |x!1!f e!4!d |x!2!^c !4!d!1!f | %22
 Ge !2!A!3!^c |xA de | !1!f2 f2 |xD G!2!A | Bc !4!de | !1!fe dc | Bc !4!d!2!A | ^G!4!d Ac | %30
 DB E!1!^G | !3!A4 | c2 c2 | !1!c2 B!3!A | B!1!c !4!d2 | cB !2!AG | AB !1!cB | !4!d!1!c e!4!d | %38
 !1!fe !4!g2 | e2 d2 | e2 e2 | e2 !4!d"^I""^I"c | !4!de !1!f2 | (!1!cB) !2!AG | !4!g2 g2 | %45
 g2 !4!a!1!g | (!1!fe) de | (!1!fe) !4!d!1!c | e2 e2 | e!4!g"^I" !1!fe | !4!d"^I"c B!2!A | %51
 B!4!a !1!g!-1!f | e!3!d !1!cB | AG !4!g2 | e2 !4!d!1!c | !1!c4 ::"^Gavotte II" e!4!d e2 | G2 G2 | %58
 !2!A2 B2 | !1!cB c!4!d | !1!c!4!d e2 | G2 G2 | !2!A2 B2 |"_D.C. Gavotte I" !1!c4 :: G!4!F G2 | %65
 !2!A2 !1!c2 | c!4!_B AG | A4 | G2 c2 | !2!A2 !1!c2 | B!2!A B!1!c | !4!d4 | e!4!d e2 | G2 G2 | %74
 !2!A2 B2 | !1!cB c!4!d | !1!c!4!d e2 | G2 G2 | !2!A2 B2 |"_D.C. Gavotte I" !1!c4 | !1!cG c!4!d | %81
 eG !1!fG | eG !4!dG | eG !4!gG | !1!fG !4!dG | eG !4!d!1!c | B!1!c !4!dB | !1!cG !2!AG | cG cd | %89
 eG fG | eG dG | eG gG | fG dG | eG dc | Bc dB | G4 | e!4!d e2 | G2 G2 | !2!A2 B2 | !1!cB c!4!d | %100
 !1!c!4!d e2 | G2 G2 | !2!A2 B2 |"_D.C. Gavotte I" !1!c4 :| %104
V:2
 !3![CG]4 | !1!!3!!2![F,CA]4 | !3!!2![FA]4 | D4 | !1![F,DB]4 | !2!!1![E,Ec]4 | !3![G,G]4 | %7
 !3![CG]4 | [CG]4 | [F,CA]4 | [FA]4 | D4 | [A,E]2 [G,E]2 | !2![^F,D]4 | D4 | !3![G,D]4 :: %16
 !1![EB]4 | !1![A,EA^c]4 | !2!A4 | !2![DA]4 | G4 | !3!F4 | G2 A2 | D4 | !2![DA]2 !3![CA]2 | %25
 !1!B,4 | !3![G,D]4 | !3![CG]4 | D4 | !1!^G2 !2!A2 | D2 !2!E2 | !2![A,E]4 | [A,E]2 [G,E]2 | %33
 !2![^F,D]4- | [F,D]4 | !3![G,D]4- | [G,D]4 | z4 | z4 | [G,G]4 | !3![CG]4 | !1!!3!!2![F,CA]4 | %42
 !3!!2![FA]4 | D4 | !1![F,DB]4 | !2!!1![E,Ec]4 | !3![G,G]4 | !3![CG]4 | %48
 !arpeggio!!2!!3!!1![A,EAc]4 | !1!!3!!2![F,CA]4- | [F,CA]4 | D4- | D4 | z2 !2!!1![E,Ec]2 | %54
 !3![G,G]4 | !3!!2![CEG]4 :: !3![CG]4 | z2 !1!E2 | !3!F2 D2 | !3!!2![CEG]4 | [CEG]4 | z2 !1!E2 | %62
 !3!F2 D2 | !3!!2![CEG]4 :: !2!E2 !3!C2 | !4!F2 !3!C2 | !2!E2 !3!C2 | !4!F2 !3!C2 | !2!E2 !3!C2 | %69
 !4!F2 !2!E2 | D2 !3!C2 | !2![B,G]4 | !3![CG]4 | z2 !1!E2 | !3!F2 D2 | !3!!2![CEG]4 | [CEG]4 | %77
 z2 !1!E2 | !3!F2 D2 | !3!!2![CEG]4 | !3!C4 | C2 C2 | C2 C2 | C2 C2 | C2 C2 | C4 | C4 | C4- | C4 | %89
 C2 C2 | C2 C2 | C2 C2 | C2 C2 | C4 | C4 | C4 | !3![CG]4 | z2 !1!E2 | !3!F2 D2 | !3!!2![CEG]4 | %100
 [CEG]4 | z2 !1!E2 | !3!F2 D2 | !3!!2![CEG]4 :| %104

